X:1
T:Winterreise, D.911
T:Rückblick
T:8. Rückblick
T:Winterreise, D.911
T:Franz Schubert
T:Wilhelm Müller
T:OpenScore (CC0)
T:OpenScore (CC0)
T:OpenScore (CC0)
T:OpenScore (CC0)
T:OpenScore (CC0)
T:OpenScore (CC0)
T:OpenScore (CC0)
C:Franz Schubert
Z:Wilhelm Müller
Z:OpenScore (CC0)
%%score 1 { 2 | ( 3 4 ) }
L:1/8
Q:1/4=90
M:3/4
K:Bb
V:1 treble nm="Singstimme\nVoice"
V:2 treble nm="Pianoforte"
V:3 bass 
V:4 bass 
V:1
"^Nicht zu geschwind" z6 | z6 | z6 | z6 | z6 | z6 | z6 | z6 | z6 | z2 z2 z D | D ^F G A B A | %11
w: |||||||||Es|brennt mir un- ter bei- den|
 G A/ A/ B c d =e | f =e d2 z D | D ^F G A B A | G A/ A/ B c d =e | f =e d2 z d | ^G A d f =e ^c | %17
w: Soh- len, tret' ich auch schon auf|Eis und Schnee, ich|möcht' nicht wie- der A- tem|ho- len, bis ich nicht mehr die|Tür- me seh', hab'|mich an je- den Stein ge-|
 d A z2 z d | ^G A d f =e ^c | d2 z2 z d | !>!_e d B G !>!e d | B G/ d/ B d g d | B A G2 z d | %23
w: sto- ssen, so|eilt' ich zu der Stadt hin-|aus; die|Krä- hen war- fen Bäll und|Schlo- ssen auf mei- nen Hut von|je- dem Haus, die|
 !>!e d B G !>!e d | B G/ d/ g d B d | B A G2 z2 | z2 z2 !fermata!z ||[K:G] B | B c B A G A | %29
w: Krä- hen war- fen Bäll' und|Schlo- ssen auf mei- nen Hut von|je- dem Haus.||Wie|an- ders hast du mich emp-|
 B2 G2 z A | B c e3/2 d/ c B | A4 z D | B c B A G A | B2 G2 z B | d e d c B A | G4 z G | %36
w: fan- gen, du|Stadt der Un- be- stän- dig-|keit! an|dei- nen blan- ken Fen- stern|san- gen die|Lerch' und Nach- ti- gall im|Streit. Die|
 A c B A c e | d2 B2 z A | B c e d c B | A4 z d | ^d e g3/2 f/ e d | f2 e2 z e | =d e d c B A | %43
w: run- den Lin- den- bäu- me|blüh- ten, die|kla- ren Rin- nen rausch- ten|hell, und|ach, zwei Mäd- chen- au- gen|glüh- ten! da|wär's ge- schen um dich, Ge-|
 B4 z d | ^d e g3/2 f/ e d | f2 e2 z e | =d g d3/2 c/ B A | G2 z2 z2 | z2 z2 z D | %49
w: sell! und|ach, zwei Mäd- chen- au- gen|glüh- ten! da|wär's ge- schehn um dich, Ge-|sell!|Kömmt|
[K:Bb] D ^F G A B c | d A/ A/ B c d =e | f =e d2 z D | D ^F G A B c | d A/ A/ B c d =e | %54
w: mir der Tag in die Ge-|dan- ken, möcht ich noch ein- mal|rück- wärts seh'n, möcht|ich zu- rüc- ke wie- der|wan- ken, vor ih- rem Hau- se|
 f =e d2 z d | c d f _e d c | d A z2 z d | c d f e d c | d4 z d ||[K:G] B G !>!e d B G | %60
w: stil- le stehn, kömmt|mir der Tag in die Ge-|dan- ken, möcht'|ich noch ein- mal rück- wärts|seh'n, möcht|ich zu- rü- cke wie- der|
 !>!e d/ d/ g d B d | B A G2 z d | B G !>!e d B G | !>!e d/ d/ g4- | g d B d B A | G4 z2 | %66
w: wan- ken, vor ih- rem Hau- se|stil- le stehn möcht|ich zu- rü- cke wie- der|wan- ken, vor ih-|* rem Hau- se stil- le|stehn,|
 z d (3de d (3de d | d4 B2 | G6- | G2 z2 !fermata!z2 |] %70
w: vor ih- * rem Hau- * se|stil- le|steh'n.|_|
V:2
 z/!<(! [G,D]/z/[A,D]/ z/ [B,D]/z/[=B,D]/ z/ [CD]/z/[^CD]/!<)! | %1
 z/!>(! (d/D/d/) z/!>)! (d/D/d/) z/ (d/D/d/) | %2
 z/!<(! [G,D]/z/[A,D]/ z/ [B,D]/z/[=B,D]/ z/ [CD]/z/[^CD]/!<)! | %3
 z/!>(! (d/D/d/) z/!>)! (d/D/d/) z/ (d/D/d/) | %4
 z/!<(! [CG]/z/[DG]/ z/ [EG]/z/[=EG]/ z/ [FG]/z/[^FG]/!<)! | %5
 z/ (g/!>(!G/g/) z/ (g/G/g/) z/ (g/G/g/)!>)! | %6
!f! z/!<(! [A,D]/z/[B,D]/ z/ [CD]/!<)!!>(!z/[B,D]/ z/ [A,D]/z/[B,D]/!>)! | %7
 z/ (G/G,/G/) z/ (G/G,/G/) z/ (G/G,/G/) |!p! z/ [A,D]/z/[B,D]/ z/ [CD]/z/[B,D]/ z/ [A,D]/z/[B,D]/ | %9
 z/ (G/G,/G/) z/ (G/G,/G/) z/ (G/G,/G/) |!p! z/ D/z/D/ z/ D/z/[^F,D]/ z/ [G,D]/z/[A,D]/ | %11
 z/ [B,D]/z/[A,D]/ z/ [G,D]/z/[A,D]/!<(! z/ [B,D]/z/[^CA]/ | %12
 z/ [DA]/z/[=EA]/ z/!<)!!f! [FA]/!>(!z/[EA^c]/ z/ [DAd]/z/!>)!!p!D/ | %13
 z/ D/z/D/ z/ D/z/[^F,D]/ z/ [G,D]/z/[A,D]/ | %14
 z/ [B,D]/z/"_cresc."[A,D]/ z/ [G,D]/z/!<(![A,D]/ z/ [B,D]/z/[^CA]/ | %15
 z/ [DA]/z/[=EA]/ z/ [FA]/!<)!!f!z/!>(![EA^c]/ z/ [DAd]/z/!>)!!p![DAd]/ | %16
 z/ [D^Gd]/z/[DAd]/ z/ [DGd]/z/[DAd]/!>(! z/ [=EA=e]/z/[^CA^c]/!>)! | %17
 z/ [DAd]/z/[Ada]/ z/!>(! [A=ea]/z/[A^ca]/!>)! z/ [Ada]/!p!z/[DAd]/ | %18
 z/ [D^Gd]/z/[DAd]/ z/!>(! [DGd]/z/[DAd]/ z/ [=EA=e]/z/[^CA^c]/!>)! | %19
 z/ [DAd]/!f!z/[Ada]/!>(! z/ [A=ea]/z/[A^ca]/!>)! z/ [Ada]/z/[DGd]/ | %20
!p! z/ !>![_E^F_e]/z/[DGd]/ z/ [DGB]/z/[DGd]/ z/ !>![EFe]/z/[DGd]/ | %21
 z/ [DGB]/z/[DGd]/ z/ [GBg]/z/[DGd]/ z/ [DGB]/z/!<(![D^FAd]/!<)! | %22
!>(! z/ [GBg]/z/[D^FAd]/!>)! z/ [DGB]/z/[CDFA]/ z/ [B,DG]/z/[DGd]/ | %23
 z/ !>![^EFe]/z/[DGd]/ z/ [DGB]/z/[DGd]/ z/ !>![EFe]/z/[DGd]/ | %24
 z/ [DGB]/z/[DGd]/ z/!<(! [DGB]/z/[DGd]/ z/ [GBg]/z/[D^FAd]/!<)! | %25
!>(! z/ [DGB]/z/[D^FAd]/ z/!>)! [DGB]/z/[CDFA]/ z/ [B,DG]/z/[CDFA]/ | %26
 z/ [B,DG]/z/[CD^FA]/ z/ [=B,DG]/z/[CDFA]/ !fermata![B,DG] ||[K:G]!p! (d/D/) | %28
 (d/D/d/D/ d/D/d/D/ d/D/d/D/) | d/D/d/D/ d/D/d/D/ d/D/d/D/ | d/D/d/D/ d/D/d/D/ [Fd]/D/[Gd]/D/ | %31
 [FAd]/D/[FAd]/D/ [FAd]/D/[FAd]/D/ [GBd]/D/[Fcd]/D/ | [GBd]/D/d/D/ d/D/d/D/ d/D/d/D/ | %33
 d/D/d/D/ d/D/d/D/ d/D/d/D/ | [Gd]/D/[Ge]/E/ [Gd]/D/[Gc]/E/ [GB]/D/[FA]/D/ | %35
 [B,G]/D/d/D/ d/D/d/D/ d/D/d/D/ | d/D/d/D/ d/D/d/D/ d/D/[Fd]/D/ | [Gd]/D/d/D/ d/D/d/D/ d/D/d/D/ | %38
 d/D/d/D/ d/D/d/D/ [Fd]/D/[Gd]/D/ |"_cresc." [FAd]/D/[FAd]/D/ [FAd]/D/[FAd]/D/ [FAd]/D/[FAd]/D/ | %40
!<(! z/ [A^d]/z/[Ae]/ z/ [Ag]/!<)!!>(!z/[Af]/ z/ [Ae]/z/[Ad]/!>)! | %41
 z/ [Af]/z/[Af]/ z/ [Ae]/z/[A^d]/ z/ [Ae]/!>(!z/[EGe]/!>)! | %42
!p! z/ [=DG=d]/z/[EGe]/ z/ [DGd]/z/[EGc]/ z/ [DGB]/z/[CDFA]/ | %43
 [B,DG]/(D/d/"_cresc."D/ d/D/d/D/ d/D/d/D/) | %44
!<(! z/ [A^d]/z/[Ae]/ z/ [Ag]/!<)!!>(!z/[Af]/ z/ [Ae]/z/[Ad]/!>)! | %45
 z/ [Af]/z/[Af]/ z/ [Ae]/z/[A^d]/ z/ [Ae]/z/[EGe]/ | %46
!p! z/ [=DG=d]/z/[EGe]/ z/ [DGd]/z/[EGc]/ z/ [DGB]/z/[CDFA]/ | %47
 [B,DG] D/G/ B/G/c/G/ d/G/g/!<(!G/!<)! |!>(! d/G/g/G/!>)! d/G/[Ac]/D/ [G_B]/D/[FA]/D/ | %49
[K:Bb] [B,DG] z/ D/ z/ D/z/[^F,D]/ z/ [G,D]/z/[A,D]/ | %50
 z/"_cresc." [B,D]/z/[CD]/ z/ D/z/[A,D]/ z/ [B,D]/z/[^CA]/ | %51
!<(! z/ [DA]/z/[=EA]/ z/!<)!!f! [FA]/!>(!z/[EA^c]/ z/ [DAd]/!>)!!p!z/D/ | %52
 z/ D/z/D/ z/ D/z/[^F,D]/ z/ [G,D]/z/[A,D]/ | %53
 z/"_cresc." [B,D]/z/[CD]/ z/ D/z/[A,D]/ z/ [B,D]/z/[^CA]/ | %54
!<(! z/ [DA]/z/[=EA]/ z/ [FA]/!<)!!f!z/!>(![EA^c]/ z/ [DAd]/!>)!!pp!z/[Aa]/ | %55
 z/ [Aa]/z/[Aa]/ z/ [Aa]/z/[Aa]/ z/ [Aa]/z/[Aa]/ | %56
 z/ [Ada]/z/[A^ca]/ z/ [Ada]/z/[Aca]/ z/ [Ada]/z/[Aa]/ | %57
 z/ [Aa]/z/[Aa]/ z/ [Aa]/z/[Aa]/ z/ [Aa]/z/[Aa]/ | %58
 z/ [Ada]/z/[A^ca]/ z/ [Ada]/z/[Aca]/ z/ [Ada]/z/[DGd]/ || %59
[K:G]!pp! z/ [DGB]/z/[DGd]/ z/ !>![EFe]/z/[DGd]/ z/ [DGB]/z/[DGd]/ | %60
 z/ !>![EFe]/z/[DGd]/ z/ [DGB]/z/[DGd]/ z/ [GBg]/z/[DFAd]/ | %61
 z/ [DGB]/z/[DFAd]/ z/ [DGB]/z/[CDFA]/ z/ [B,DG]/z/[DGd]/ | %62
 z/ [DGB]/z/[DGd]/ z/ !>![EFe]/z/[DGd]/ z/ [DGB]/z/[DGd]/ | %63
 z/ !>![EFe]/z/[DGd]/ z/ [=FG=f]/!>(!z/[EGe]/ z/ [DGd]/z/[CGc]/!>)! | %64
 z/ [B,GB]/z/[DGd]/ z/ [GBg]/z/[DFAd]/ z/ [DGB]/z/[DFAd]/ | %65
 z/ [DGB]/z/[CDFA]/ z/ [B,DG]/"_decresc."z/[CDFA]/ z/ [B,DGB]/z/[CDFA]/ | %66
 z/ [B,DG]/z/[CDF]/ z/ [B,DG]/z/[CDF]/ z/ [B,DG]/z/[CDF]/ |!pp! [B,DG]6- | %68
 [B,DG]z/[CEG]/"_dim." z/ [B,DG]/z/[CEG]/ z/ [B,DG]/z/[CEG]/ | !fermata![B,DG]6 |] %70
V:3
!p! [G,,D,][A,,D,][B,,D,][=B,,D,][C,D,][^C,D,] | [D,,D,]2 [D,,D,]2 [D,,D,]2 | %2
 [G,,D,][A,,D,][B,,D,][=B,,D,][C,D,][^C,D,] | [D,,D,]2 [D,,D,]2 [D,,D,]2 | %4
 [C,G,][D,G,][E,G,][=E,G,][F,G,][^F,G,] | [G,,G,]2 [G,,G,]2 [G,,G,]2 | %6
 [A,,D,][B,,D,][C,D,][B,,D,][A,,D,][B,,D,] | [G,,,G,,]2 [G,,,G,,]2 [G,,,G,,]2 | %8
 [A,,D,][B,,D,][C,D,][B,,D,][A,,D,][B,,D,] | [G,,,G,,]2 [G,,,G,,]2 [G,,,G,,]2 | %10
 D,D,D,[^F,,D,][G,,D,][A,,D,] | [B,,D,][A,,D,]"^cresc."[G,,D,][A,,D,][B,,D,][^C,A,] | %12
 [D,A,][=E,A,][F,A,][A,,G,A,][D,F,A,]D, | D,D,D,[^F,,D,][G,,D,][A,,D,] | %14
 [B,,D,][A,,D,][G,,D,][A,,D,][B,,D,][^C,A,] | [D,A,][=E,A,][F,A,][A,,G,A,][D,F,A,][F,A,] | %16
 [=E,^G,][F,A,][E,G,][F,A,][A,,=G,A,][A,,E,A,] | %17
 [D,F,A,][A,,F,A,]!f![A,,G,A,][A,,=E,A,][D,F,A,][F,A,] | %18
 [=E,^G,][F,A,][E,G,][F,A,][A,,=G,A,][A,,E,A,] | %19
 [D,F,A,][A,,F,A,][A,,G,A,][A,,=E,A,][D,F,A,][B,,G,] | [C,G,][B,,G,][G,,G,][B,,G,][C,G,][B,,G,] | %21
 [G,,G,][B,,G,][G,,D,G,][B,,D,G,][D,G,B,][D,A,C] | %22
 [D,G,B,][D,A,C][D,G,B,][D,^F,A,][G,,D,G,][B,,G,] | %23
 !>![A,,G,][B,,G,][G,,G,][B,,G,]!>![A,,G,][B,,G,] | %24
 [G,,G,][B,,G,][G,,D,G,][B,,D,G,][D,G,B,][D,A,C] | %25
 [D,G,B,][D,A,C][D,G,B,][D,^F,A,][G,,D,G,][D,,D,] | %26
 [G,,D,][D,,D,][G,,D,][D,,D,] !fermata![G,,D,] ||[K:G] G, | (G,A,G,D,B,,D,) | (G,2 B,,2) z (D, | %30
 G,A,CB,A,G,) | (D,F,A,CB,A,) | (G,A,G,D,B,,D,) | (G,2 B,,2) z (G, | %34
 B,[C,G,C][B,,G,B,][C,G,C][D,G,B,][D,F,A,]) | [G,,D,G,]2 (B,,D,G,B,) | (D,A,G,D,A,C) | %37
 (B,2 G,2) z D, | (G,A,CB,A,G,) | D,3 (F,A,C) |[K:treble] [B,F][B,E][B,^D][B,D][B,E][B,F] | %41
 [C^D][CD][CE][CD][CE][K:bass] [^C,G,^A,] | [D,G,B,][C,G,C][B,,G,B,][E,G,C][D,G,B,][D,F,A,] | %43
 [G,,D,G,]2 (B,,D,G,B,) |[K:treble] [B,F][B,E][B,^D][B,D][B,E][B,F] | %45
 [C^D][CD][CE][CD][CE][K:bass] [^C,G,^A,] | [D,G,B,][=C,G,=C][B,,G,B,][E,G,C][D,G,B,][D,F,A,] | %47
 G, G,B,[A,C][B,D]([CE] | [B,D]) ([C_E][_B,D]) [A,C][G,B,][F,A,] | %49
[K:Bb] [G,,D,G,] D,D,[^F,,D,][G,,D,][A,,D,] | [B,,D,][C,D,]D,[A,,D,][B,,D,][^C,A,] | %51
 [D,A,][=E,A,][F,A,][A,,G,A,][D,F,A,]D, | D,D,D,[^F,,D,][G,,D,][A,,D,] | %53
 [B,,D,][C,D,]D,[A,,D,][B,,D,][^C,A,] | [D,A,][=E,A,][F,A,][A,,G,A,][D,F,A,][D,F,A,] | %55
 [_E,G,A,][D,G,A,][C,G,A,][C,G,A,][D,G,A,][E,G,A,] | %56
 [D,^F,A,][E,F,A,][D,F,A,][E,F,A,][D,F,A,][D,F,A,] | %57
 [E,G,A,][D,G,A,][C,G,A,][C,G,A,][D,G,A,][E,G,A,] | %58
 [D,^F,A,][E,F,A,][D,F,A,][E,F,A,][D,F,A,][=B,,G,] || %59
[K:G] [G,,G,][B,,G,][C,G,][B,,G,][G,,G,][B,,G,] | [C,G,][B,,G,][G,,D,G,][B,,D,G,][D,G,B,][D,A,C] | %61
 [D,G,B,][D,A,C][D,G,B,][D,F,A,][G,,D,G,][B,,G,] | [G,,G,][B,,G,]!>![C,G,][B,,G,][G,,G,][B,,G,] | %63
 !>![C,G,][B,,G,][D,=F,G,][C,E,G,][B,,D,G,][A,,C,G,] | %64
 [G,,B,,G,][B,,D,G,][D,G,B,][D,A,C][D,G,B,][D,A,C] | %65
 [D,G,B,][D,F,A,][G,,D,G,][D,,D,][G,,D,][D,,D,] | [G,,D,][D,,D,][G,,D,][D,,D,][G,,D,][D,,D,] | %67
 [G,,D,]6- | [G,,D,][C,,G,,][G,,,G,,][C,,G,,][G,,,G,,][C,,G,,] | !fermata![G,,,G,,]6 |] %70
V:4
 x6 | x6 | x6 | x6 | x6 | x6 | x6 | x6 | x6 | x6 | x6 | x6 | x6 | x6 | x6 | x6 | x6 | x6 | x6 | %19
 x6 | x6 | x6 | x6 | x6 | x6 | x6 | x5 ||[K:G] x | x6 | x6 | x6 | x6 | x6 | x6 | x6 | x6 | x6 | %37
 x6 | x6 | x6 |[K:treble] x6 | x5[K:bass] x | x6 | x6 |[K:treble] x6 | x5[K:bass] x | x6 | %47
 [G,,D,] (G,3 G,)G,- | G,(G,G,) D,3 |[K:Bb] x6 | x6 | x6 | x6 | x6 | x6 | x6 | x6 | x6 | x6 || %59
[K:G] x6 | x6 | x6 | x6 | x6 | x6 | x6 | x6 | x6 | x6 | x6 |] %70

